X:1
T:Title
%%score ( 1 2 ) { 3 | ( 4 5 ) }
L:1/8
M:4/4
K:F
V:1 treble nm="Grand Piano, Staff"
V:2 treble 
V:3 bass nm="Grand Piano, Staff-1"
V:4 bass 
V:5 bass 
V:1
 [Fc]2 [Fc]2 [Ec]2 A2- | AG [CF]2 E2 F2 | [=B,D]2 C6 | [Cc]2 [Fc]2 [FA]2 d2- | dc [DB]2 A2 G2- | %5
w: By~Melchior~Vulpius * * *|||||
 G2 [A,F]6 | [Fc]2 [Fc]2 [Ec]2 A2- | AG [CF]2 E2 F2 | [=B,D]2 C6 | [Cc]2 [Fc]2 [FA]2 d2- | %10
w: |||||
 dc [DB]2 A2 G2- | G2 [A,F]6 | [CF]2 [DF]2 [EG]2 [FA]2- | [FA]2 [Fc]2 [FB]4 | [FA]2 [EG]6 | %15
w: |||||
 [DF]2 [CG]2 [CA]2 [CG]2- | [CG]2 [DF]2 E2- [CE]2 | [=B,D]2 C6 | [CF]2 [FA]2 [Fc]2 B2- | %19
w: ||||
 BA [DG]2 C2 D2 | [CE]2 [CF]6 |] %21
w: ||
V:2
 z4 z2 D2- | D2 z2 C4 | x8 | z4 z2 F2- | F2 z2 C4- | C2 z2 z4 | z4 z2 D2- | D2 z2 C4 | x8 | %9
 z4 z2 F2- | F2 z2 C4- | C2 z2 z4 | x8 | x8 | x8 | x8 | z4 D2 z2 | x8 | z4 z2 F2- | F2 z2 F4 | %20
 x8 |] %21
V:3
 A,2 A,2 G,2 F,2- | F,G, A,2 G,2 A,2 | G,2 E,6 | F,2 A,2 C2 B,2- | B,C F,2 F,4 | z2 F,6 | %6
 A,2 A,2 G,2 F,2- | F,G, A,2 G,2 A,2 | G,2 E,6 | F,2 A,2 C2 B,2- | B,C F,2 F,4 | z2 F,6 | %12
 A,2 A,2[K:treble] C2 C2- | C2 C2 D4 | C2 C6 | A,2 G,2 F,2 E,2- | E,2 A,2 G,4 | G,2 E,6 | %18
 F,2[K:treble] C2 C2 D2- | DC[K:bass] B,2 A,2 G,2- | G,2 A,6 |] %21
V:4
 F,2 F,2 C,2 D,2- | D,E, F,2 C,2 F,,2 | G,,2 C,6 | z8 | z4 z2 C,2- | C,2 z2 z4 | F,2 F,2 C,2 D,2- | %7
 D,E, F,2 C,2 F,,2 | G,,2 C,6 | z8 | z4 z2 C,2- | C,2 z2 z4 | F,2 D,2 C,2 F,,2- | F,,2 A,,2 B,,4 | %14
 F,2 C,6 | D,2 E,2 z2 C,2- | C,2 F,,2 G,,4 | G,,2 C,6 | A,,2 F,,2 A,,2 B,,2- | %19
 B,,F,, G,,2 A,,2 B,,2 | C,2 F,,6 |] %21
V:5
 x8 | x8 | x8 | A,,2 F,,2 F,2 B,,2- | B,,A,, B,,2 F,,2 z2 | E,2 F,,6 | x8 | x8 | x8 | %9
 A,,2 F,,2 F,2 B,,2- | B,,A,, B,,2 A,,2 z2 | E,2 F,,6 | x8 | x8 | x8 | x8 | x8 | x8 | x8 | x8 | %20
 x8 |] %21

